!!!COM: Beethoven
!!!OTL: 32 Variationen fur das pianoforte
!!!Variation: Variation 25 a
**function	**harm	**kern	**kern
*	*	*clefF4	*clefG2
*	*	*k[b-e-a-]	*k[b-e-a-]
*M3/4	*M3/4	*M3/4	*M3/4
*c:	*c:	*c:	*c:
=201	=201	=201	=201
2.T	i	8CC	16ee-LL
.	.	.	16g
.	.	.	qb-
.	.	r	16a-
.	.	.	16gJJ
.	.	8CC	16ee-LL
.	.	.	16g
.	.	.	qb-
.	.	r	16a-
.	.	.	16gJJ
.	.	8CC	16ee-LL
.	.	.	16g
.	.	.	qb-
.	.	r	16a-
.	.	.	16gJJ
=202	=202	=202	=202
2.T	Vb	8BBB	16ddLL
.	.	.	16g
.	.	.	qbn
.	.	r	16a
.	.	.	16gJJ
.	.	r	16f#LL
.	.	.	16g
.	.	.	16b
.	.	.	16ddJJ
.	.	r	16ggLL
.	.	.	16bb
.	.	.	16ddd
.	.	.	16ggJJ
=203	=203	=203	=203
2.T	viioD7c/IV	8BBB-	16dd-LL
.	.	.	16e
.	.	.	qg
.	.	r	16f
.	.	.	16eJJ
.	.	8BBB-	16dd-LL
.	.	.	16e
.	.	.	qg
.	.	r	16f
.	.	.	16eJJ
.	.	8BBB-	16dd-LL
.	.	.	16e
.	.	.	qg
.	.	r	16f
.	.	.	16eJJ
=204	=204	=204	=204
2.P	IVb	8AAA	16ccLL
.	.	.	16f
.	.	.	qa
.	.	r	16g
.	.	.	16fJJ
.	.	r	16eLL
.	.	.	16f
.	.	.	16a
.	.	.	16ccJJ
.	.	r	16ffLL
.	.	.	16aa
.	.	.	16ccc
.	.	.	16ffJJ
=205	=205	=205	=205
2.P	Gn	8AAA-	16ff#LL
.	.	.	16cc
.	.	.	qee-
.	.	r	16dd
.	.	.	16ccJJ
.	.	8AAA-	16ff#LL
.	.	.	16cc
.	.	.	qee-
.	.	r	16dd
.	.	.	16ccJJ
.	.	8AAA-	16ff#LL
.	.	.	16cc
.	.	.	qee-
.	.	r	16dd
.	.	.	16ccJJ
=206	=206	=206	=206
4D	ic	8GGG	16ggLL
.	.	.	16cc
.	.	.	qee-
.	.	r	16dd
.	.	.	16ccJJ
2D	iiom7b	8FFF	16aa-LL
.	.	.	16cc
.	.	r	16dd
.	.	.	16ffJJ
.	.	r	16aa-LL
.	.	.	16ccc
.	.	.	16ddd
.	.	.	16fffJJ
=207	=207	=207	=207
*	*	*clefG2	*
2D	iiom7b	r	16aaa-LL
.	.	.	16ggg
.	.	.	16fff
.	.	.	16eee-JJ
.	.	8f 8a- 8dd	16dddLL
.	.	.	16eee-
.	.	r	16fff
.	.	.	16cccJJ
4D	V7	8g 8b 8dd	16bbLL
.	.	.	16ccc
.	.	r	16ddd
.	.	.	16ffJJ
=208	=208	=208	=208
2.T	i	8c 8e- 8g 8cc	16ee-LL
.	.	.	16ff
.	.	r	16gg
.	.	.	16ccJJ
.	.	r	16e-LL
.	.	.	16f
.	.	.	16g
.	.	.	16cJJ
*	*	*clefF4	*
.	.	16E-LL	r
.	.	16F	.
.	.	16G	.
.	.	16CJJ	.
*-	*-	*-	*-
